kora-light/actions/scalable/tag-new.svg

<svg xmlns="http://www.w3.org/2000/svg" style="fill-rule:evenodd;clip-rule:evenodd;stroke-linejoin:round;stroke-miterlimit:2" width="100%" height="100%" version="1.1" viewBox="0 0 16 16" xml:space="preserve">
 <defs>
  <style id="current-color-scheme" type="text/css">
   .ColorScheme-Text { color:#444444; } .ColorScheme-Highlight { color:#4285f4; } .ColorScheme-NeutralText { color:#ff9800; } .ColorScheme-PositiveText { color:#4caf50; } .ColorScheme-NegativeText { color:#f44336; }
  </style>
 </defs>
 <path style="fill:currentColor;fill-opacity:0.3" class="ColorScheme-Text" d="M4,1c0,0 -2,0 -2,2l0,5l7,7l7,-7l-7,-7l-5,0Z"/>
 <path style="fill:currentColor;" class="ColorScheme-Text" d="M4,1c0,0 -2,0 -2,2l0,5l7,7l7,-7l-7,-7l-5,0Zm4.586,1l-4.586,0c0,-0 -1,-0 -1,1l0,4.586l6,6l5.586,-5.586l-6,-6Z"/>
 <path style="fill:currentColor;" class="ColorScheme-Text" d="M7,4l2,0l0,2l2,0l0,2l-2,0l0,2l-2,0l0,-2l-2,0l0,-2l2,0l0,-2Z"/>
</svg>

<svg xmlns="http://www.w3.org/2000/svg" width="16" height="16" version="1.1">
 <defs>
  <style id="current-color-scheme" type="text/css">
   .ColorScheme-Text { color:#444444; } .ColorScheme-Highlight { color:#4285f4; }
  </style>
 </defs>
 <path style="fill:currentColor" class="ColorScheme-Text" d="M 4,1 C 4,1 2,1 2,3 V 8 L 9,15 16,8 9,1 Z M 7,4 H 9 V 6 H 11 V 8 H 9 V 10 H 7 V 8 H 5 V 6 H 7 Z"/>
</svg>
